X: 26
T:Quick March. JMP.026
T:Sussex Polka,aka. JMP.026
M:2/4
L:1/8
Q:160
C:"27",Sussex Polka,aka
S:John Miller MS. Perth, 1799.(for the fife)
R:March
O:Scotland
A:Perth
N:Quick Step in Walsh MS(1800),
H:1799
Z:vmp.C. Graebe
K:G Major
G/A/ | BB B/d/c/e/ | dGGG | G/A/B A/B/c | e/d/c/B/ AG/A/ |!
 BB B/d/c/e/| dG G g/f/ | (e/d/)(c/B/) (c/B/)(A/G/) | A2 G :|!
|:B/c/ | ddd e/f/ | gdd e/f/ | (g/f/)(e/d/) (e/d/)(c/B/) |\
(c/B/)(A/G/) A G/A/ |!
 BB B/d/c/e/ | dG G g/f/ |(e/d/)(c/B/)  (c/B/)(A/G/) | A2 G :|]
